svg/outline/maestro-old.svg

<svg height="471" viewBox="0 0 750 471" width="750" xmlns="http://www.w3.org/2000/svg"><g fill="#393939"><path d="m52.8846154 28.2035928c-13.2760757 0-24.0384616 10.5226489-24.0384616 23.502994v367.5868262c0 12.980345 10.7623859 23.502994 24.0384616 23.502994h644.2307696c13.276075 0 24.038461-10.522649 24.038461-23.502994v-367.5868262c0-12.9803451-10.762386-23.502994-24.038461-23.502994zm0-28.2035928h644.2307696c29.207366 0 52.884615 23.1498275 52.884615 51.7065868v367.5868262c0 28.55676-23.677249 51.706587-52.884615 51.706587h-644.2307696c-29.2073666 0-52.8846154-23.149827-52.8846154-51.706587v-367.5868262c0-28.5567593 23.6772488-51.7065868 52.8846154-51.7065868z"/><g transform="translate(61 40)"><path d="m627.719665 195.156045c0 107.298792-87.340669 194.599424-194.742023 194.599424-44.761821 0-86.059643-15.15417-118.995943-40.651616-32.940656 25.497446-74.216692 40.651616-118.996377 40.651616-107.3664967 0-194.7049869-87.300632-194.7049869-194.599424 0-107.27136 87.3384902-194.55893048 194.7049869-194.55893048 44.779685 0 86.055721 15.19161638 118.996377 40.66337208 32.9363-25.4717557 74.234122-40.66337208 118.995943-40.66337208 107.401354 0 194.742023 87.28757048 194.742023 194.55893048zm-195.001632-177.3795992c-39.49393 0-75.95087 12.9318145-105.444958 34.750441 28.79693 26.7562292 49.441485 62.1075432 57.920654 101.8791862h-17.847212c-8.32231-35.582955-27.41569-67.0503701-53.624426-90.7717588-26.191308 23.7213887-45.275974 55.1888038-53.606997 90.7717588h-17.838499c8.470455-39.771643 29.123724-75.122957 57.898869-101.8791862-29.454873-21.8186265-65.946672-34.750441-105.449752-34.750441-97.887778 0-177.2660456 79.2933577-177.2660456 177.1336372 0 97.838973 79.3782676 177.189806 177.2660456 177.189806 39.50308 0 75.994879-12.941829 105.449752-34.760021-25.145573-23.412245-44.095164-53.316086-54.142936-87.105132h18.24372c9.703551 29.531562 26.962537 55.608979 49.445843 76.007284 22.535592-20.398305 39.75972-46.475722 49.463271-76.007284h18.239364c-10.012914 33.789046-28.993007 63.692887-54.151651 87.105132 29.494088 21.818192 65.951028 34.760021 105.444958 34.760021 97.915665 0 177.282603-79.350833 177.282603-177.189806 0-97.8402795-79.366938-177.1336372-177.282603-177.1336372z"/><path d="m310.43048 236.442661c-7.202501 1.850512-14.178425 2.760094-21.533429 2.760094-23.45061 0-35.698783-10.686381-35.698783-31.143902 0-23.840693 15.55531-41.394869 36.705303-41.394869 17.267701 0 28.304564 9.857787 28.304564 25.259274 0 5.08869-.740729 10.065479-2.57948 17.14445h-41.724832c-1.5076 9.970124 5.786402 14.358233 18.208863 14.358233 7.437792 0 14.143568-1.321484 21.585717-4.33194zm-11.180832-41.071286c0-1.542675 2.313688-12.23907-9.747123-12.482467-6.662204 0-11.4508 4.44776-13.398482 12.482467z"/><path d="m329.03949 190.300467c0 8.818888 4.971599 14.931674 16.269896 19.435603 8.6186 3.540791 9.978056 4.55792 9.978056 7.725126 0 4.413798-3.79079 6.394935-12.265602 6.357489-6.361556-.038752-12.174099-.821192-19.001879-2.721341l-3.058775 16.045899c6.08705 1.422064 14.644649 1.904939 22.234943 2.059512 22.513806 0 32.892727-7.378101 32.892727-23.314712 0-9.567365-4.318015-15.214258-15.045514-19.420364-8.927963-3.554724-9.956269-4.361112-9.956269-7.585793 0-3.798122 3.538069-5.724832 10.461707-5.724832 4.182941 0 9.912698.391003 15.359235 1.061106l3.032632-16.196989c-5.52061-.73498-13.943135-1.357187-18.801446-1.357187-23.899404 0-32.173783 10.733842-32.099711 23.636483z"/><path d="m239.129493 238.080255h-17.526956l.429187-7.347622c-5.337607 5.74878-12.433355 8.470122-22.107712 8.470122-11.414199 0-19.260698-7.811774-19.260698-19.020218 0-17.059545 13.621571-26.90035 37.012923-26.90035 2.391248 0 5.475295.146299 8.603786.50508.64182-2.30465.815237-3.274318.815237-4.517427 0-4.672433-3.662687-6.38492-13.531376-6.38492-9.693094.040494-16.235473 1.477798-22.303352 3.108861l2.985138-15.650979c10.510074-2.649934 17.393189-3.678818 25.161258-3.678818 18.11039 0 27.696295 7.070262 27.696295 20.420075.143789 3.546452-1.098022 10.715554-1.721106 13.816142-.718942 4.564887-5.725399 30.924453-6.252624 37.180054zm-14.768924-31.01636c-2.206065-.24688-3.186442-.314805-4.714958-.314805-11.956674 0-17.985337 3.529471-17.985337 10.562288 0 4.45255 2.946359 7.173891 7.555437 7.173891 8.562828 0 14.777108-7.173891 15.144858-17.421374z"/><path d="m418.437682 222.337728c-1.455315.499856-3.285352.697099-5.67747.697099-4.980314 0-7.158929-1.557914-7.158929-5.170549 0-2.253706 5.895331-31.826196 5.895331-31.826196h10.753643l2.875772-17.009908h-10.692641l3.185135-16.6803h-20.844988s-9.333185 50.413177-9.912697 53.889527c-.583868 3.457628-3.233065 15.865638-2.875772 18.505122 0 9.7559 5.85176 15.232545 16.605403 15.232545 4.814738 0 9.3114-.637447 15.045514-2.215825z"/><path d="m511.392118 239.202755c-23.481111 0-32.953728-14.261136-32.953728-31.688171 0-24.35753 16.038962-40.8506 40.866457-40.8506 21.568286 0 33.019087 13.581017 33.019087 31.008052 0 28.905436-17.189272 41.530719-40.931816 41.530719zm7.084674-55.35944c-10.557567 0-17.132627 12.494658-17.132627 23.548094 0 9.337902 4.474875 15.554316 11.92138 15.457219 10.20899 0 16.666404-9.342691 16.666404-25.070303 0-7.15212-2.919344-13.93501-11.455157-13.93501z"/><path d="m438.804348 168.347638c-2.644839 21.607451-7.355004 43.514033-11.006362 65.126708l-.89759 4.746891h21.07592c7.585937-41.804595 10.117487-53.717539 26.017018-49.509692.81916-2.243256 7.66001-19.760422 7.66001-19.760422-11.080436-4.078528-18.235007 1.759075-24.69242 9.9858.579511-3.740212 1.677533-7.315401 1.403027-10.589285z"/><path d="m183.523431 153.302282h-34.095321l-23.059331 52.821455-1.731128-52.821455h-32.7506809l-16.2084586 85.359989h19.0271507l12.5013278-65.226852 3.479248 65.226852h19.122138l28.689743-65.626563-12.462113 65.626563h20.960453z"/></g></g></svg>

<svg width="750" height="471" viewBox="0 0 750 471" version="1.1" xmlns="http://www.w3.org/2000/svg" xmlns:xlink="http://www.w3.org/1999/xlink">
    <!-- Generator: Sketch 48.2 (47327) - http://www.bohemiancoding.com/sketch -->
    <desc>Created with Sketch.</desc>
    <defs></defs>
    <g id="Page-1" stroke="none" stroke-width="1" fill="none" fill-rule="evenodd">
        <g id="maestro" fill="#393939" fill-rule="nonzero">
            <path d="M52.8846154,28.2035928 C39.6085397,28.2035928 28.8461538,38.7262417 28.8461538,51.7065868 L28.8461538,419.293413 C28.8461538,432.273758 39.6085397,442.796407 52.8846154,442.796407 L697.115385,442.796407 C710.39146,442.796407 721.153846,432.273758 721.153846,419.293413 L721.153846,51.7065868 C721.153846,38.7262417 710.39146,28.2035928 697.115385,28.2035928 L52.8846154,28.2035928 Z M52.8846154,0 L697.115385,0 C726.322751,-5.0099645e-15 750,23.1498275 750,51.7065868 L750,419.293413 C750,447.850173 726.322751,471 697.115385,471 L52.8846154,471 C23.6772488,471 3.41607085e-15,447.850173 0,419.293413 L0,51.7065868 C-3.41607085e-15,23.1498275 23.6772488,5.0099645e-15 52.8846154,0 Z" id="Rectangle-1"></path>
            <g id="Group" transform="translate(61.000000, 40.000000)">
                <path d="M627.719665,195.156045 C627.719665,302.454837 540.378996,389.755469 432.977642,389.755469 C388.215821,389.755469 346.917999,374.601299 313.981699,349.103853 C281.041043,374.601299 239.765007,389.755469 194.985322,389.755469 C87.6188253,389.755469 0.280335096,302.454837 0.280335096,195.156045 C0.280335096,87.884685 87.6188253,0.597114521 194.985322,0.597114521 C239.765007,0.597114521 281.041043,15.7887309 313.981699,41.2604866 C346.917999,15.7887309 388.215821,0.597114521 432.977642,0.597114521 C540.378996,0.597114521 627.719665,87.884685 627.719665,195.156045 Z M432.718033,17.7764458 C393.224103,17.7764458 356.767163,30.7082603 327.273075,52.5268868 C356.070005,79.283116 376.71456,114.63443 385.193729,154.406073 L367.346517,154.406073 C359.024207,118.823118 339.930827,87.3557029 313.722091,63.6343142 C287.530783,87.3557029 268.446117,118.823118 260.115094,154.406073 L242.276595,154.406073 C250.74705,114.63443 271.400319,79.283116 300.175464,52.5268868 C270.720591,30.7082603 234.228792,17.7764458 194.725712,17.7764458 C96.837934,17.7764458 17.4596664,97.0698035 17.4596664,194.910083 C17.4596664,292.749056 96.837934,372.099889 194.725712,372.099889 C234.228792,372.099889 270.720591,359.15806 300.175464,337.339868 C275.029891,313.927623 256.0803,284.023782 246.032528,250.234736 L264.276248,250.234736 C273.979799,279.766298 291.238785,305.843715 313.722091,326.24202 C336.257683,305.843715 353.481811,279.766298 363.185362,250.234736 L381.424726,250.234736 C371.411812,284.023782 352.431719,313.927623 327.273075,337.339868 C356.767163,359.15806 393.224103,372.099889 432.718033,372.099889 C530.633698,372.099889 610.000636,292.749056 610.000636,194.910083 C610.000636,97.0698035 530.633698,17.7764458 432.718033,17.7764458 Z" id="path14-path"></path>
                <path d="M310.43048,236.442661 C303.227979,238.293173 296.252055,239.202755 288.897051,239.202755 C265.446441,239.202755 253.198268,228.516374 253.198268,208.058853 C253.198268,184.21816 268.753578,166.663984 289.903571,166.663984 C307.171272,166.663984 318.208135,176.521771 318.208135,191.923258 C318.208135,197.011948 317.467406,201.988737 315.628655,209.067708 L273.903823,209.067708 C272.396223,219.037832 279.690225,223.425941 292.112686,223.425941 C299.550478,223.425941 306.256254,222.104457 313.698403,219.094001 L310.43048,236.442661 Z M299.249648,195.371375 C299.249648,193.8287 301.563336,183.132305 289.502525,182.888908 C282.840321,182.888908 278.051725,187.336668 276.104043,195.371375 L299.249648,195.371375 Z" id="path13"></path>
                <path d="M329.03949,190.300467 C329.03949,199.119355 334.011089,205.232141 345.309386,209.73607 C353.927986,213.276861 355.287442,214.29399 355.287442,217.461196 C355.287442,221.874994 351.496652,223.856131 343.02184,223.818685 C336.660284,223.779933 330.847741,222.997493 324.019961,221.097344 L320.961186,237.143243 C327.048236,238.565307 335.605835,239.048182 343.196129,239.202755 C365.709935,239.202755 376.088856,231.824654 376.088856,215.888043 C376.088856,206.320678 371.770841,200.673785 361.043342,196.467679 C352.115379,192.912955 351.087073,192.106567 351.087073,188.881886 C351.087073,185.083764 354.625142,183.157054 361.54878,183.157054 C365.731721,183.157054 371.461478,183.548057 376.908015,184.21816 L379.940647,168.021171 C374.420037,167.286191 365.997512,166.663984 361.139201,166.663984 C337.239797,166.663984 328.965418,177.397826 329.03949,190.300467 Z" id="path15"></path>
                <path d="M239.129493,238.080255 L221.602537,238.080255 L222.031724,230.732633 C216.694117,236.481413 209.598369,239.202755 199.924012,239.202755 C188.509813,239.202755 180.663314,231.390981 180.663314,220.182537 C180.663314,203.122992 194.284885,193.282187 217.676237,193.282187 C220.067485,193.282187 223.151532,193.428486 226.280023,193.787267 C226.921843,191.482617 227.09526,190.512949 227.09526,189.26984 C227.09526,184.597407 223.432573,182.88492 213.563884,182.88492 C203.87079,182.925414 197.328411,184.362718 191.260532,185.993781 L194.24567,170.342802 C204.755744,167.692868 211.638859,166.663984 219.406928,166.663984 C237.517318,166.663984 247.103223,173.734246 247.103223,187.084059 C247.247012,190.630511 246.005201,197.799613 245.382117,200.900201 C244.663175,205.465088 239.656718,231.824654 239.129493,238.080255 Z M224.360569,207.063895 C222.154504,206.817015 221.174127,206.74909 219.645611,206.74909 C207.688937,206.74909 201.660274,210.278561 201.660274,217.311378 C201.660274,221.763928 204.606633,224.485269 209.215711,224.485269 C217.778539,224.485269 223.992819,217.311378 224.360569,207.063895 Z" id="path17"></path>
                <path d="M418.437682,222.337728 C416.982367,222.837584 415.15233,223.034827 412.760212,223.034827 C407.779898,223.034827 405.601283,221.476913 405.601283,217.864278 C405.601283,215.610572 411.496614,186.038082 411.496614,186.038082 L422.250257,186.038082 L425.126029,169.028174 L414.433388,169.028174 L417.618523,152.347874 L396.773535,152.347874 C396.773535,152.347874 387.44035,202.761051 386.860838,206.237401 C386.27697,209.695029 383.627773,222.103039 383.985066,224.742523 C383.985066,234.498423 389.836826,239.975068 400.590469,239.975068 C405.405207,239.975068 409.901869,239.337621 415.635983,237.759243 L418.437682,222.337728 Z" id="path19"></path>
                <path d="M511.392118,239.202755 C487.911007,239.202755 478.43839,224.941619 478.43839,207.514584 C478.43839,183.157054 494.477352,166.663984 519.304847,166.663984 C540.873133,166.663984 552.323934,180.245001 552.323934,197.672036 C552.323934,226.577472 535.134662,239.202755 511.392118,239.202755 Z M518.476792,183.843315 C507.919225,183.843315 501.344165,196.337973 501.344165,207.391409 C501.344165,216.729311 505.81904,222.945725 513.265545,222.848628 C523.474535,222.848628 529.931949,213.505937 529.931949,197.778325 C529.931949,190.626205 527.012605,183.843315 518.476792,183.843315 Z" id="path21"></path>
                <path d="M438.804348,168.347638 C436.159509,189.955089 431.449344,211.861671 427.797986,233.474346 L426.900396,238.221237 L447.976316,238.221237 C455.562253,196.416642 458.093803,184.503698 473.993334,188.711545 C474.812494,186.468289 481.653344,168.951123 481.653344,168.951123 C470.572908,164.872595 463.418337,170.710198 456.960924,178.936923 C457.540435,175.196711 458.638457,171.621522 458.363951,168.347638 L438.804348,168.347638 Z" id="path23"></path>
                <polygon id="path25" points="183.523431 153.302282 149.42811 153.302282 126.368779 206.123737 124.637651 153.302282 91.8869701 153.302282 75.6785115 238.662271 94.7056622 238.662271 107.20699 173.435419 110.686238 238.662271 129.808376 238.662271 158.498119 173.035708 146.036006 238.662271 166.996459 238.662271"></polygon>
            </g>
        </g>
    </g>
</svg>
